X: 11
T: Farewell to Boris
C: Noel Jackson  7th July 2022
S: tradtunes 2022-7-8 msg from Noel Jackson
N: Written to celebrate Boris Johnson's resigning as UK Prime Minister.
L: 1/8
M: C|
Q: 1/2=90
K: G
|: "G"D3G "C"E2A2 | "D7"FEFG A2D2 | "G"G3B "Em"E2G2 | "D7"FEFG A4 |\
|  "G"B3d G2B2 | "D7"A3c F2A2 | "G"B2G2 "Am"c2A2 | "D7"dcBA "G"G4 :|
|| "C"e3f g2e2 | "G"dedc B2d2 | "D7"cdcB A2c2 | "G"BcBA GABd |\
|  "C"e3f g2e2 | "G"dedc B2d2 | "A7"A^GAB ^cABc | "D"d4 "D7"c4 ||
|| "C"e3f g2e2 | "G"dedc B2d2 | "D7"cdcB A2c2 | "G"BcBA GABd |\
|  "C"E3F G2E2 | "G"D2G2 B2dc | "G"BAGB "D7"A2F2 | "G"G8 |]
